X:60
T:Na Ceannabh\'ain Bhana
R:slip jig
Z:id:hn-slipjig-60
M:9/8
L:1/8
K:G
BAG AGE GED | E/F/GD DEG A2c | BAG AGE GED | E/F/GD DEF G3 :|
|: Bdd edd BAG | Bdd edB A3 | Bdd edd BAG | GED DEF G3 :|
W:Gairm fh\'ein, gairm fh\'ein, gairm fh\'ein,
W:Gairm fh\'ein Micil is M\'aire
W:Gairm fh\'ein, gairm fh\'ein, gairm fh\'ein,
W:Seo iad na ceannabh\'ain Bhana
W:Cuirfidh m\'e, Cuirfidh m\'e, Cuirfidh m\'e,
W:Cuirfidh m\'e suas ag sadbh She\'ain th\'u
W:Cuirfidh m\'e, Cuirfidh m\'e, Cuirfidh m\'e,
W:Is Cuirfidh s\'i buir\'in sa ngleann ort
W:Translation:
W:Good for you, Mical and Maire!
W:They are the white headed Canavans.
W:I will send you up to Sean's Sive
W:And she will put a spancel on you in the glen.
<end>
<start>
